icons/First Quarter Moon--1504904.svg

<svg enable-background="new 0 0 16 16" viewBox="0 0 16 16" xmlns="http://www.w3.org/2000/svg"><path d="m10 8c-1.103 0-2-.897-2-2s.897-2 2-2 2 .897 2 2-.897 2-2 2zm0-3c-.552 0-1 .449-1 1s.448 1 1 1 1-.449 1-1-.448-1-1-1z"/><path d="m8 15c-.276 0-.5-.224-.5-.5v-13c0-.276.224-.5.5-.5 3.859 0 7 3.14 7 7 0 3.859-3.141 7-7 7zm.5-12.979v11.959c3.075-.255 5.5-2.84 5.5-5.98s-2.425-5.725-5.5-5.979z"/></svg>

<?xml version="1.0" encoding="utf-8"?>
<!DOCTYPE svg PUBLIC "-//W3C//DTD SVG 1.0//EN" "http://www.w3.org/TR/2001/REC-SVG-20010904/DTD/svg10.dtd">
<svg    fill="#000000" xmlns="http://www.w3.org/2000/svg" xmlns:xlink="http://www.w3.org/1999/xlink" version="1.1" x="0px" y="0px" viewBox="0 0 16 16" style="enable-background:new 0 0 16 16;" xml:space="preserve"><g><path d="M10,8C8.897,8,8,7.103,8,6s0.897-2,2-2s2,0.897,2,2S11.103,8,10,8z M10,5C9.448,5,9,5.449,9,6s0.448,1,1,1s1-0.449,1-1   S10.552,5,10,5z"></path><path d="M8,15c-0.276,0-0.5-0.224-0.5-0.5v-13C7.5,1.224,7.724,1,8,1c3.859,0,7,3.14,7,7C15,11.859,11.859,15,8,15z M8.5,2.021   v11.959C11.575,13.725,14,11.14,14,8C14,4.86,11.575,2.275,8.5,2.021z"></path></g></svg>
